src/lib/packages/icons/src/assets/line/tags.svg

<svg width="24" height="24" viewBox="0 0 24 24" fill="none" xmlns="http://www.w3.org/2000/svg">
<path d="M17.605 10.64L11.205 4.23297C10.581 3.60797 9.71698 3.25 8.83398 3.25H3.73401C2.36401 3.25 1.25 4.36502 1.25 5.73602V10.841C1.25 11.736 1.59896 12.579 2.23096 13.213L8.63196 19.62C9.38096 20.37 10.178 20.75 11.002 20.75C11.825 20.75 12.623 20.37 13.371 19.62L17.604 15.383C19.133 13.854 19.133 12.169 17.605 10.64ZM16.545 14.323L12.312 18.56C11.394 19.477 10.608 19.475 9.69397 18.56L3.29395 12.153C2.94295 11.802 2.75098 11.336 2.75098 10.841V5.73602C2.75098 5.19202 3.19199 4.75 3.73499 4.75H8.83496C9.32296 4.75 9.80002 4.94803 10.145 5.29303L16.545 11.7C17.487 12.644 17.487 13.379 16.545 14.323ZM22.75 13.019C22.749 13.831 22.361 14.626 21.599 15.383L17.371 19.62C16.635 20.369 15.836 20.75 15 20.75C14.586 20.75 14.25 20.414 14.25 20C14.25 19.586 14.586 19.25 15 19.25C15.419 19.25 15.8571 19.019 16.3051 18.564L20.5389 14.32C21.0109 13.852 21.249 13.414 21.25 13.016C21.251 12.615 21.012 12.172 20.54 11.7L14.14 5.28998C13.83 4.97498 13.414 4.78797 12.962 4.75897C12.548 4.73197 12.234 4.37498 12.262 3.96198C12.288 3.54798 12.682 3.24002 13.058 3.26202C13.881 3.31502 14.6441 3.66102 15.2061 4.23602L21.601 10.641C22.365 11.404 22.752 12.205 22.75 13.019ZM6.5 7.5C6.5 8.052 6.05395 8.5 5.50195 8.5C4.95195 8.5 4.5 8.052 4.5 7.5C4.5 6.948 4.94204 6.5 5.49304 6.5H5.50305C6.05405 6.5 6.5 6.948 6.5 7.5Z" fill="currentColor"/>
</svg>

<svg xmlns="http://www.w3.org/2000/svg" width="24" height="24" fill="none"><path fill="currentColor" d="m17.605 10.64-6.4-6.407a3.373 3.373 0 0 0-2.371-.983h-5.1A2.487 2.487 0 0 0 1.25 5.736v5.105c0 .895.349 1.738.981 2.372l6.401 6.407c.749.75 1.546 1.13 2.37 1.13.823 0 1.621-.38 2.369-1.13l4.233-4.237c1.529-1.529 1.529-3.214.001-4.743Zm-1.06 3.683-4.233 4.237c-.918.917-1.704.915-2.618 0l-6.4-6.407a1.843 1.843 0 0 1-.543-1.312V5.736c0-.544.441-.986.984-.986h5.1c.488 0 .965.198 1.31.543l6.4 6.407c.942.944.942 1.679 0 2.623Zm6.205-1.304c-.001.812-.389 1.607-1.151 2.364l-4.228 4.237c-.736.749-1.535 1.13-2.371 1.13a.75.75 0 0 1 0-1.5c.419 0 .857-.231 1.305-.686l4.234-4.244c.472-.468.71-.906.711-1.304.001-.401-.238-.844-.71-1.316l-6.4-6.41a1.804 1.804 0 0 0-1.178-.531.75.75 0 0 1-.7-.797c.026-.414.42-.722.796-.7a3.289 3.289 0 0 1 2.148.974l6.395 6.405c.764.763 1.151 1.564 1.149 2.378ZM6.5 7.5c0 .552-.446 1-.998 1-.55 0-1.002-.448-1.002-1s.442-1 .993-1h.01c.551 0 .997.448.997 1Z"/></svg>
